images_sukapura_svg/svx/res/symphony/Indent2.svg

<?xml version="1.0" encoding="UTF-8" standalone="no"?>
<svg
   xmlns:dc="http://purl.org/dc/elements/1.1/"
   xmlns:cc="http://creativecommons.org/ns#"
   xmlns:rdf="http://www.w3.org/1999/02/22-rdf-syntax-ns#"
   xmlns:svg="http://www.w3.org/2000/svg"
   xmlns="http://www.w3.org/2000/svg"
   xmlns:xlink="http://www.w3.org/1999/xlink"
   xmlns:sodipodi="http://sodipodi.sourceforge.net/DTD/sodipodi-0.dtd"
   xmlns:inkscape="http://www.inkscape.org/namespaces/inkscape"
   viewBox="0 0 16 16"
   version="1.1"
   id="svg20"
   sodipodi:docname="Indent2.svg"
   inkscape:version="0.92.3 (unknown)">
  <metadata
     id="metadata26">
    <rdf:RDF>
      <cc:Work
         rdf:about="">
        <dc:format>image/svg+xml</dc:format>
        <dc:type
           rdf:resource="http://purl.org/dc/dcmitype/StillImage" />
        <dc:title />
      </cc:Work>
    </rdf:RDF>
  </metadata>
  <defs
     id="defs24">
    <linearGradient
       gradientTransform="translate(-25.830508,-3.5932203)"
       id="a"
       gradientUnits="userSpaceOnUse"
       x1="14"
       x2="13.79661"
       y1="22"
       y2="2.1355929">
      <stop
         offset="0"
         stop-color="#0040dd"
         id="stop2" />
      <stop
         offset="1"
         stop-color="#0a84ff"
         id="stop4" />
    </linearGradient>
    <linearGradient
       inkscape:collect="always"
       xlink:href="#a"
       id="linearGradient963"
       gradientUnits="userSpaceOnUse"
       gradientTransform="matrix(-1,0,0,1,-29.010942,26.95119)"
       x1="-31.010942"
       y1="-4.95119"
       x2="-31.010942"
       y2="-16.951191" />
    <linearGradient
       inkscape:collect="always"
       xlink:href="#a"
       id="linearGradient858"
       x1="4"
       y1="6"
       x2="4"
       y2="0"
       gradientUnits="userSpaceOnUse" />
  </defs>
  <sodipodi:namedview
     pagecolor="#ffffff"
     bordercolor="#666666"
     borderopacity="1"
     objecttolerance="10"
     gridtolerance="10"
     guidetolerance="10"
     inkscape:pageopacity="0"
     inkscape:pageshadow="2"
     inkscape:window-width="1366"
     inkscape:window-height="706"
     id="namedview22"
     showgrid="true"
     inkscape:zoom="10.429825"
     inkscape:cx="-1.2169736"
     inkscape:cy="6.0273196"
     inkscape:window-x="0"
     inkscape:window-y="0"
     inkscape:window-maximized="1"
     inkscape:current-layer="svg20">
    <inkscape:grid
       type="xygrid"
       id="grid833" />
  </sodipodi:namedview>
  <g
     fill="none"
     stroke="#808080"
     stroke-linecap="round"
     stroke-linejoin="round"
     id="g10"
     style="stroke:#69696e;stroke-opacity:1">
    <path
       d="m9.4988158 3.4999999h5.0082562z"
       id="path2"
       style="stroke:#69696e;stroke-opacity:1" />
    <path
       d="m1.492929 7.5h9.014304z"
       id="path4"
       style="stroke:#69696e;stroke-opacity:1" />
    <path
       d="m1.4929288 10.5h13.0141432z"
       id="path6"
       style="stroke:#69696e;stroke-opacity:1" />
    <path
       d="m1.492929 13.5h9.014304z"
       id="path8"
       style="stroke:#69696e;stroke-opacity:1" />
  </g>
  <g
     fill="#4d82b8"
     transform="matrix(0 1 -1 0 14 -6)"
     id="g18"
     style="stroke:none;stroke-opacity:1;fill:#0a84ff;fill-opacity:1">
    <path
       style="fill:url(#linearGradient858);fill-opacity:1;stroke:none;stroke-opacity:1"
       d="M 0,0 V 2 4 6 H 2 L 2,4 H 6 V 6 H 8 V 4 C 8,3.4513873 8,3.1221829 8,2 V 0 H 6 V 2 H 2 L 2,0 Z"
       transform="rotate(-90,10,4)"
       id="path12"
       inkscape:connector-curvature="0"
       sodipodi:nodetypes="ccccccccccccccccc" />
  </g>
  <g
     style="fill:none;stroke:#e9e9e9;stroke-linecap:round;stroke-linejoin:round;stroke-opacity:0.99215686"
     id="g829"
     transform="translate(0,1)">
    <path
       style="stroke:#e9e9e9;stroke-opacity:0.99215686"
       id="path821"
       d="M 9.4988158,3.4999999 H 14.507072 Z"
       inkscape:connector-curvature="0" />
    <path
       style="stroke:#e9e9e9;stroke-opacity:0.99215686"
       id="path823"
       d="m 1.492929,7.5 h 9.014304 z"
       inkscape:connector-curvature="0" />
    <path
       style="stroke:#e9e9e9;stroke-opacity:0.99215686"
       id="path825"
       d="M 1.4929288,10.5 H 14.507072 Z"
       inkscape:connector-curvature="0" />
    <path
       style="stroke:#e9e9e9;stroke-opacity:0.99215686"
       id="path827"
       d="m 1.492929,13.5 h 9.014304 z"
       inkscape:connector-curvature="0" />
  </g>
</svg>

<svg viewBox="0 0 16 16" xmlns="http://www.w3.org/2000/svg" xmlns:xlink="http://www.w3.org/1999/xlink"><linearGradient id="a" gradientUnits="userSpaceOnUse" x1="-21.830508" x2="-21.830508" y1="2.40678" y2="-3.59322"><stop offset="0" stop-color="#0040dd"/><stop offset="1" stop-color="#0a84ff"/></linearGradient><g fill="none" stroke="#69696e" stroke-linecap="round" stroke-linejoin="round"><path d="m9.4988158 3.4999999h5.0082562z"/><path d="m1.492929 7.5h9.014304z"/><path d="m1.4929288 10.5h13.0141432z"/><path d="m1.492929 13.5h9.014304z"/></g><path d="m0 0v2 2 2h2v-2h4v2h2v-2c0-.5486127 0-.8778171 0-2v-2h-2v2h-4v-2z" fill="url(#a)"/><g fill="none" stroke="#e9e9e9" stroke-linecap="round" stroke-linejoin="round" stroke-opacity=".992157" transform="translate(0 1)"><path d="m9.4988158 3.4999999h5.0082562z"/><path d="m1.492929 7.5h9.014304z"/><path d="m1.4929288 10.5h13.0141432z"/><path d="m1.492929 13.5h9.014304z"/></g></svg>
